Obsidian/actions/16s/edit-paste-style.svg

<svg height="16" viewBox="0 0 16 16" width="16" xmlns="http://www.w3.org/2000/svg"><path d="m7 1v4h-3v3h9v-3h-3v-4zm-3 8c0 2.761-.8954 6-2 6h9c1.105 0 2-3.239 2-6z" fill="#bebebe"/></svg>

<svg xmlns="http://www.w3.org/2000/svg" width="16" height="16" viewBox="0 0 16 16">
 <defs>
  <style id="current-color-scheme" type="text/css">
   .ColorScheme-Text { color:#bebebe; } .ColorScheme-Highlight { color:#4285f4; }
  </style>
 </defs>
 <path style="fill:currentColor" class="ColorScheme-Text" d="M 7 1 L 7 5 L 4 5 L 4 8 L 13 8 L 13 5 L 10 5 L 10 1 L 7 1 z M 4 9 C 4 11.761 3.1046 15 2 15 L 11 15 C 12.105 15 13 11.761 13 9 L 4 9 z"/>
</svg>
